X: 15994
T: Gravel Walks, The
R: reel
M: 4/4
K: Adorian
|:"Am"A2 eA BA eA|A2 eA "G"BA GB|"Am"A2 eA B/c/d ef|"C"ge dc "G"BA GB:|
"Am"A2 aA gA fA|~A2 eA "G"BA GB|"Am"A2 aA gA fa|"C"ge dc "G"BA GB|
"Am"A2 aA gA fA|~A2 eA "G"BA GB|"Am"AB cd ef ga|"C"ge dc "G"BA GB||
|:"Am"cA AG A3 B|cA ~A2 "G"dB GB|"Am"cA AG A2 B/c/d|"C"ef ge "G"dB GB:|
"C"c2 gc ac gc|~c2 gc "G"BA GB|"C"c2 gc ac ga|ge dc "G"BA GB|
"C"c2 gc ac gc|"C"~c2 gc "G"BA GB|"Am"AB cd ef ga|"C"ge dc "G"BA GB||

